X: 22173
T: L'Ostination
R: reel
M: 4/4
K: Gmajor
|:B2e2 e3g|fgaf g2g2|B2e2 e3g|fgaf g2b2|
B2e2 e3g|fgaf g2ge|d2ed B2ge|1 dcBA G3A:|2 dcBA G2ge||
|:dcBA cBAG|FGAB A2ge|d2ed B2ge|dcBA G2ge|
[1 dcBA cBAG|FDEF G2ge|d2ed B2ge|dcBA G2ge:|2 dcBA cBAG FDEF G3A||

